X:235
T:Langstrom's Pony
M:6/8
K:AMix
fed cAA|EAA cAA|fed cAA|BGB dcB|\
fed cAA|EAA efg|faf gfe|dBG Bcd:|
|:cee dff|cee ecA|cee deg|dBG Bcd|\
cee dff|cee efg|faf gfe|dBG Bcd:|
|:Ace ~a3|ecA ecA|GBd ~g3|dBG Bcd|\
faf gfe|fed ecA|faf gfe|dBG Bcd:|
|:AEA ~A2d|cAc ecB|AEA ~A2=c|BGB dcB|\
AEA ~A2d|cAc efg|faf gfe dBG Bcd:|
